X: 24053
T: Lonely Fireside, The
R: hornpipe
M: 4/4
K: Gmajor
|:(3DEF|G2 DG BGFG|Bdef gdcB|AEcB AGFG|(3ABA (3GFE
DG,B,D|G2 DG BGFG|Bdef gdcB|AEcB AGFG|(3ABA GF G2:|
|:Bc|d2 Bd edBd|(3gfg bg edBd|gfgf edcB|(3ABA (3GFE DG,B,D|
G2 DG BGFG|Bdef gdcB|AEcB AGFG|(3ABA GF G2:|

